X: 8868
T: Cullintra, The
R: jig
M: 6/8
K: Dmajor
|:A|def edB|AFA B2 F|ABA F2 D|GFG E2 A|
dd/e/f edB|AF/G/A B2 F|ABA F2 E|EDC D2:|
F|A^GA A2 F|B^AB B2 G|c2 d e2 c|d/e/fe dcB|
AF/G/A AFA|BG/A/B BGB|cec Ace|dfe d2 F|
A^GA A2 F|B^AB B2 G|c^Bc c=BA|B^AB =A2 A|
def e2 B|AF/G/A B3|ABA F2 E|EDC D2||

